X:9
T:Hunt
Z: id:dc-setdance-10
M:C|
L:1/8
K:G Major
D2|GABG AGEG|cBce dcBA|GABG AGED|EAAG AcBA|!
GABG AGEG|cBce dcBA|GABG AGED|(3EFG FA G2:|!
D2|GABc d2de|=f2f2 f2ed|e2e2 efge|d2de d2cB|!
cBcd edcB|A2AB A2G2|g2g2 gedB|A2AB A2|]!

